other/uae4all2.svg

<?xml version="1.0" encoding="UTF-8" standalone="no"?>
<svg
   xmlns:dc="http://purl.org/dc/elements/1.1/"
   xmlns:cc="http://creativecommons.org/ns#"
   xmlns:rdf="http://www.w3.org/1999/02/22-rdf-syntax-ns#"
   xmlns:svg="http://www.w3.org/2000/svg"
   xmlns="http://www.w3.org/2000/svg"
   xmlns:sodipodi="http://sodipodi.sourceforge.net/DTD/sodipodi-0.dtd"
   xmlns:inkscape="http://www.inkscape.org/namespaces/inkscape"
   viewBox="0 0 48 48"
   version="1.1"
   id="svg2289"
   sodipodi:docname="uae4all2.svg"
   inkscape:version="1.0.1 (3bc2e813f5, 2020-09-07)">
  <metadata
     id="metadata2293">
    <rdf:RDF>
      <cc:Work
         rdf:about="">
        <dc:format>image/svg+xml</dc:format>
        <dc:type
           rdf:resource="http://purl.org/dc/dcmitype/StillImage" />
        <dc:title></dc:title>
      </cc:Work>
    </rdf:RDF>
  </metadata>
  <sodipodi:namedview
     pagecolor="#5a5a5a"
     bordercolor="#666666"
     borderopacity="1"
     objecttolerance="10"
     gridtolerance="10"
     guidetolerance="10"
     inkscape:pageopacity="0"
     inkscape:pageshadow="2"
     inkscape:window-width="3840"
     inkscape:window-height="2096"
     id="namedview2291"
     showgrid="false"
     inkscape:zoom="22.627417"
     inkscape:cx="23.009562"
     inkscape:cy="21.472756"
     inkscape:window-x="0"
     inkscape:window-y="27"
     inkscape:window-maximized="1"
     inkscape:current-layer="svg2289"
     showguides="true"
     inkscape:guide-bbox="true"
     inkscape:document-rotation="0" />
  <defs
     id="defs2285">
    <style
       id="style2283">.a{fill:none;stroke:#fff;stroke-linecap:round;stroke-linejoin:round;}</style>
  </defs>
  <path
     id="path7577"
     style="fill:none;stroke:#ffffff;stroke-width:1;stroke-linecap:round;stroke-linejoin:round;stroke-miterlimit:4;stroke-dasharray:none;stroke-opacity:1"
     d="m 31.449352,11.222527 9.256881,13.162991 -1.883957,1.302463" />
  <path
     id="path7658"
     style="fill:none;stroke:#ffffff;stroke-width:1;stroke-linecap:round;stroke-linejoin:round;stroke-miterlimit:4;stroke-dasharray:none;stroke-opacity:1"
     d="M 29.086725,7.862947 30.06039,9.2474678" />
  <path
     id="path7689"
     style="fill:none;stroke:#ffffff;stroke-width:1;stroke-linecap:round;stroke-linejoin:round;stroke-miterlimit:4;stroke-dasharray:none;stroke-opacity:1"
     d="M 14.859699,15.683666 25.086127,8.7423005" />
  <path
     id="path7664"
     style="fill:none;stroke:#ffffff;stroke-width:1;stroke-linecap:round;stroke-linejoin:round;stroke-miterlimit:4;stroke-dasharray:none;stroke-opacity:1"
     d="m 11.586721,17.905257 1.344827,-0.912824" />
  <path
     id="path7669"
     style="fill:none;stroke:#ffffff;stroke-width:1;stroke-linecap:round;stroke-linejoin:round;stroke-miterlimit:4;stroke-dasharray:none;stroke-opacity:1"
     d="M 15.905321,26.470209 12.723947,21.535816" />
  <path
     id="path7521"
     style="fill:none;stroke:#ffffff;stroke-width:1;stroke-linecap:round;stroke-linejoin:round;stroke-miterlimit:4;stroke-dasharray:none;stroke-opacity:1"
     d="M 18.711012,30.821909 16.664533,27.647765" />
  <path
     id="path7499"
     style="fill:none;stroke:#ffffff;stroke-width:1;stroke-linecap:round;stroke-linejoin:round;stroke-miterlimit:4;stroke-dasharray:none;stroke-opacity:1"
     d="M 20.891655,34.204143 19.526902,32.087377" />
  <path
     id="path7224"
     style="fill:none;stroke:#ffffff;stroke-width:1;stroke-linecap:round;stroke-linejoin:round;stroke-miterlimit:4;stroke-dasharray:none;stroke-opacity:1"
     d="M 24.66422,29.948682 A 9.5204987,9.4732376 0 0 1 33.479501,24.053525 9.5204987,9.4732376 0 0 1 43,33.526763 v 0 A 9.5204987,9.4732376 0 0 1 33.479501,43 9.5204987,9.4732376 0 0 1 25.194505,38.193759" />
  <path
     style="fill:none;stroke:#ffffff;stroke-width:1;stroke-linecap:round;stroke-linejoin:round;stroke-miterlimit:4;stroke-dasharray:none;stroke-opacity:1"
     d="m 37.015251,24.729156 c 0.484982,6.481573 -1.635677,13.323451 -4.758692,18.193391"
     id="path7226"
     sodipodi:nodetypes="cc" />
  <path
     style="fill:none;stroke:#ffffff;stroke-width:1;stroke-linecap:round;stroke-linejoin:round;stroke-miterlimit:4;stroke-dasharray:none;stroke-opacity:1"
     d="M 29.757388,42.245528 C 29.735798,36.14294 30.414676,30.121092 34.77103,24.149237"
     id="path7228"
     sodipodi:nodetypes="cc" />
  <path
     style="fill:none;stroke:#ffffff;stroke-width:1;stroke-linecap:round;stroke-linejoin:round;stroke-miterlimit:4;stroke-dasharray:none;stroke-opacity:1"
     d="m 38.935001,25.757862 c 3.818059,6.321083 1.526384,13.971559 -3.89826,17.11816"
     id="path7230"
     sodipodi:nodetypes="cc" />
  <path
     id="path7232"
     style="fill:none;stroke:#ffffff;stroke-width:1;stroke-linecap:round;stroke-linejoin:round;stroke-miterlimit:4;stroke-dasharray:none;stroke-opacity:1"
     d="m 26.534996,38.196842 c 0.266346,1.004556 0.634986,1.925908 1.178274,2.872213"
     sodipodi:nodetypes="cc" />
  <path
     id="path7554"
     style="fill:none;stroke:#ffffff;stroke-width:1;stroke-linecap:round;stroke-linejoin:round;stroke-miterlimit:4;stroke-dasharray:none;stroke-opacity:1"
     d="m 32.502989,24.109556 c -4.350968,2.316938 -7.010605,7.825262 -6.227905,12.937621"
     sodipodi:nodetypes="cc" />
  <path
     style="fill:none;stroke:#ffffff;stroke-width:1;stroke-linecap:round;stroke-linejoin:round;stroke-miterlimit:4;stroke-dasharray:none;stroke-opacity:1"
     d="M 41.211951,28.019206 C 37.922194,26.413263 34.619789,25.162182 31.36182,24.294169"
     id="path7234"
     sodipodi:nodetypes="cc" />
  <path
     style="fill:none;stroke:#ffffff;stroke-width:1;stroke-linecap:round;stroke-linejoin:round;stroke-miterlimit:4;stroke-dasharray:none;stroke-opacity:1"
     d="M 42.904915,32.219429 C 38.528454,29.829562 31.178336,27.916005 26.126934,27.504897"
     id="path7236"
     sodipodi:nodetypes="cc" />
  <path
     id="path7491"
     style="fill:none;stroke:#ffffff;stroke-width:1;stroke-linecap:round;stroke-linejoin:round;stroke-miterlimit:4;stroke-dasharray:none;stroke-opacity:1"
     d="M 42.595577,36.258191 C 36.718466,34.47552 30.731479,32.834134 24.909258,31.353443"
     sodipodi:nodetypes="cc" />
  <path
     id="path7240"
     style="fill:none;stroke:#ffffff;stroke-width:1;stroke-linecap:round;stroke-linejoin:round;stroke-miterlimit:4;stroke-dasharray:none;stroke-opacity:1"
     d="m 25.744885,36.049272 c 4.670767,1.942462 9.858846,3.2883 14.890946,3.731393"
     sodipodi:nodetypes="cc" />
  <path
     style="fill:none;stroke:#ffffff;stroke-width:1;stroke-linecap:round;stroke-linejoin:round;stroke-miterlimit:4;stroke-dasharray:none;stroke-opacity:1"
     d="M 36.462567,42.529316 C 32.800705,42.21613 29.553192,41.600558 26.357825,39.823874"
     id="path7242"
     sodipodi:nodetypes="cc" />
  <path
     id="path7246"
     style="fill:none;stroke:#ffffff;stroke-width:1;stroke-linecap:round;stroke-linejoin:round;stroke-miterlimit:4;stroke-dasharray:none;stroke-opacity:1"
     d="M 23.187042,21.39918 36.435603,5.0820266 h -2.93665 v 0 L 21.435766,19.694002" />
  <path
     style="fill:none;stroke:#ffffff;stroke-width:1;stroke-linecap:round;stroke-linejoin:round;stroke-miterlimit:4;stroke-dasharray:none;stroke-opacity:1"
     d="M 28.197636,5 13.625925,22.528613 16.902991,22.500429 31.46816,5 Z"
     id="path7248"
     sodipodi:nodetypes="ccccc" />
  <path
     style="fill:none;stroke:#ffffff;stroke-width:1;stroke-linecap:round;stroke-linejoin:round;stroke-miterlimit:4;stroke-dasharray:none;stroke-opacity:1"
     d="M 16.272342,17.294184 13.051207,13.623082 H 10.0806 l 4.659881,5.503716 z"
     id="path7250"
     sodipodi:nodetypes="ccccc" />
  <path
     style="fill:none;stroke:#ffffff;stroke-width:1;stroke-linecap:round;stroke-linejoin:round;stroke-miterlimit:4;stroke-dasharray:none;stroke-opacity:1"
     d="M 13.655607,20.311762 7.9267578,13.646902 H 4.9999439 l 7.1428931,8.654418 z"
     id="path7252"
     sodipodi:nodetypes="ccccc" />
  <path
     style="fill:none;stroke:#ffffff;stroke-width:1;stroke-linecap:round;stroke-linejoin:round;stroke-miterlimit:4;stroke-dasharray:none;stroke-opacity:1"
     d="m 6.162249,38.14004 h 7.469823 V 37.872467 C 11.382469,37.38374 10.950567,36.580482 11.49323,35.60859 l 2.308786,-3.52186 h 6.694753 l 0.769589,4.118756 c 0.171655,1.303674 -1.086147,1.649438 -2.833134,1.667391 l -0.193016,0.319006 h 9.757623 V 37.867036 C 26.858322,37.626949 25.854802,37.176301 25.630281,35.51946 L 22.892892,19.692676 H 20.280281 L 9.8749651,35.818619 c -0.475996,1.050944 -1.6419129,1.760791 -3.7388278,2.010353 z"
     id="path7254"
     sodipodi:nodetypes="ccccccccccccccccc" />
  <path
     style="fill:none;stroke:#ffffff;stroke-width:1;stroke-linecap:round;stroke-linejoin:round;stroke-miterlimit:4;stroke-dasharray:none;stroke-opacity:1"
     d="m 14.613971,30.818319 4.422936,-6.839539 1.200977,6.844053 z"
     id="path7256"
     sodipodi:nodetypes="cccc" />
</svg>

<svg xmlns="http://www.w3.org/2000/svg" viewBox="0 0 48 48"><defs><style>.a{fill:none;stroke:#fff;stroke-linecap:round;stroke-linejoin:round;}</style></defs><path class="a" d="M31.45,11.22l9.26,13.17-1.89,1.3"/><path class="a" d="M29.09,7.86l1,1.39"/><path class="a" d="M14.86,15.68,25.09,8.74"/><path class="a" d="M11.59,17.91,12.93,17"/><path class="a" d="M15.91,26.47l-3.19-4.93"/><path class="a" d="M18.71,30.82l-2.05-3.17"/><path class="a" d="M20.89,34.2l-1.36-2.11"/><path class="a" d="M24.66,30A9.53,9.53,0,0,1,43,33.53h0a9.53,9.53,0,0,1-17.81,4.66"/><path class="a" d="M37,24.73a31,31,0,0,1-4.76,18.19"/><path class="a" d="M29.76,42.25c0-6.11.65-12.13,5-18.1"/><path class="a" d="M38.94,25.76c3.81,6.32,1.52,14-3.9,17.12"/><path class="a" d="M26.53,38.2a12,12,0,0,0,1.18,2.87"/><path class="a" d="M32.5,24.11a12.85,12.85,0,0,0-6.22,12.94"/><path class="a" d="M41.21,28a54.37,54.37,0,0,0-9.85-3.73"/><path class="a" d="M42.9,32.22c-4.37-2.39-11.72-4.3-16.77-4.72"/><path class="a" d="M42.6,36.26c-5.88-1.78-11.87-3.43-17.69-4.91"/><path class="a" d="M25.74,36.05a51.27,51.27,0,0,0,14.9,3.73"/><path class="a" d="M36.46,42.53a23.93,23.93,0,0,1-10.1-2.71"/><path class="a" d="M23.19,21.4,36.44,5.08H33.5L21.44,19.69"/><path class="a" d="M28.2,5,13.63,22.53l3.27,0L31.47,5Z"/><path class="a" d="M16.27,17.29l-3.22-3.67h-3l4.66,5.51Z"/><path class="a" d="M13.66,20.31,7.93,13.65H5l7.14,8.65Z"/><path class="a" d="M6.16,38.14h7.47v-.27c-2.25-.49-2.68-1.29-2.14-2.26l2.31-3.52h6.7l.77,4.12c.17,1.3-1.09,1.64-2.84,1.66l-.19.32H28v-.32a2.54,2.54,0,0,1-2.37-2.35L22.89,19.69H20.28L9.87,35.82c-.47,1-1.64,1.76-3.73,2Z"/><path class="a" d="M14.61,30.82,19,24l1.2,6.84Z"/></svg>
